frontend/src/components/header/spacer.svg

<svg width="1080" height="100" xmlns="http://www.w3.org/2000/svg"><path d="m0 59 22.5 2.3c22.5 2.4 67.5 7 112.5 6s90-7.6 135-7c45 .7 90 8.7 135 9.2S495 63 540 63s90 7 135 10.5S765 77 810 76s90-3 135-7.7c45-4.6 90-12 112.5-15.6L1080 49V0H0z" fill="#f5f5f5"/><path d="m0 48 22.5-1.8C45 44.3 90 40.7 135 41.8 180 43 225 49 270 53c45 4 90 6 135 4.3 45-1.6 90-7 135-7.6 45-.7 90 3.3 135 5.3s90 2 135-1.7c45-3.6 90-11 135-10.6 45 .3 90 8.3 112.5 12.3l22.5 4V0H0z" fill="#9c9c9c"/><path d="m0 37 22.5-.3c22.5-.4 67.5-1 112.5-1.9 45-.8 90-1.8 135-.5 45 1.4 90 5 135 3.7 45-1.3 90-7.7 135-10s90-.7 135-.5c45 .2 90-1.2 135-2.2 45-1 90-1.6 135-.1s90 5.1 112.5 7L1080 34V0H0z" fill="#4c4c4c"/><path d="m0 24 22.5-.8C45 22.3 90 20.7 135 19.7s90-1.4 135-2.7c45-1.3 90-3.7 135-3.7s90 2.4 135 2.7c45 .3 90-1.3 135-1.2 45 .2 90 2.2 135 3.2s90 1 135 1.2c45 .1 90 .5 112.5.6l22.5.2V0H0z"/></svg>

<svg id="visual" viewBox="0 0 1080 100" width="1080" height="100" xmlns="http://www.w3.org/2000/svg" xmlns:xlink="http://www.w3.org/1999/xlink" version="1.1"><path d="M0 59L22.5 61.3C45 63.7 90 68.3 135 67.3C180 66.3 225 59.7 270 60.3C315 61 360 69 405 69.5C450 70 495 63 540 63C585 63 630 70 675 73.5C720 77 765 77 810 76C855 75 900 73 945 68.3C990 63.7 1035 56.3 1057.5 52.7L1080 49L1080 0L1057.5 0C1035 0 990 0 945 0C900 0 855 0 810 0C765 0 720 0 675 0C630 0 585 0 540 0C495 0 450 0 405 0C360 0 315 0 270 0C225 0 180 0 135 0C90 0 45 0 22.5 0L0 0Z" fill="#f5f5f5"></path><path d="M0 48L22.5 46.2C45 44.3 90 40.7 135 41.8C180 43 225 49 270 53C315 57 360 59 405 57.3C450 55.7 495 50.3 540 49.7C585 49 630 53 675 55C720 57 765 57 810 53.3C855 49.7 900 42.3 945 42.7C990 43 1035 51 1057.5 55L1080 59L1080 0L1057.5 0C1035 0 990 0 945 0C900 0 855 0 810 0C765 0 720 0 675 0C630 0 585 0 540 0C495 0 450 0 405 0C360 0 315 0 270 0C225 0 180 0 135 0C90 0 45 0 22.5 0L0 0Z" fill="#9c9c9c"></path><path d="M0 37L22.5 36.7C45 36.3 90 35.7 135 34.8C180 34 225 33 270 34.3C315 35.7 360 39.3 405 38C450 36.7 495 30.3 540 28C585 25.7 630 27.3 675 27.5C720 27.7 765 26.3 810 25.3C855 24.3 900 23.7 945 25.2C990 26.7 1035 30.3 1057.5 32.2L1080 34L1080 0L1057.5 0C1035 0 990 0 945 0C900 0 855 0 810 0C765 0 720 0 675 0C630 0 585 0 540 0C495 0 450 0 405 0C360 0 315 0 270 0C225 0 180 0 135 0C90 0 45 0 22.5 0L0 0Z" fill="#4c4c4c"></path><path d="M0 24L22.5 23.2C45 22.3 90 20.7 135 19.7C180 18.7 225 18.3 270 17C315 15.7 360 13.3 405 13.3C450 13.3 495 15.7 540 16C585 16.3 630 14.7 675 14.8C720 15 765 17 810 18C855 19 900 19 945 19.2C990 19.3 1035 19.7 1057.5 19.8L1080 20L1080 0L1057.5 0C1035 0 990 0 945 0C900 0 855 0 810 0C765 0 720 0 675 0C630 0 585 0 540 0C495 0 450 0 405 0C360 0 315 0 270 0C225 0 180 0 135 0C90 0 45 0 22.5 0L0 0Z" fill="#000000"></path></svg>
